src/images/svg/icons/shield.svg

<svg width="48" height="48" viewBox="0 0 48 48" fill="none" xmlns="http://www.w3.org/2000/svg">
<path opacity="0.3" d="M12 12.6199V22.1799C12 30.1799 17.1 37.5799 24 39.8399C30.9 37.5799 36 30.1999 36 22.1799V12.6199L24 8.37988L12 12.6199ZM33.2 19.7599L21.88 31.0799L14.8 23.9999L17.62 21.1799L21.86 25.4199L30.34 16.9399L33.2 19.7599Z" fill="#00A3D7"/>
<path d="M24.0003 4.00012L8.00026 10.0001V22.1801C8.00026 32.2801 14.8203 41.7001 24.0003 44.0001C33.1803 41.7001 40.0003 32.2801 40.0003 22.1801V10.0001L24.0003 4.00012ZM36.0003 22.1801C36.0003 30.1801 30.9003 37.5801 24.0003 39.8401C17.1003 37.5801 12.0003 30.2001 12.0003 22.1801V12.6201L24.0003 8.38012L36.0003 12.6201V22.1801ZM17.6403 21.1801L14.8003 24.0001L21.8803 31.0801L33.2003 19.7601L30.3803 16.9401L21.9003 25.4201L17.6403 21.1801Z" fill="#00A3D7"/>
</svg>

<svg fill='none' xmlns='http://www.w3.org/2000/svg' viewBox='0 0 48 48'><path opacity='.3' d='M12 12.62v9.56c0 8 5.1 15.4 12 17.66 6.9-2.26 12-9.64 12-17.66v-9.56L24 8.38l-12 4.24Zm21.2 7.14L21.88 31.08 14.8 24l2.82-2.82 4.24 4.24 8.48-8.48 2.86 2.82Z' fill='#00A3D7'/><path d='M24 4 8 10v12.18C8 32.28 14.82 41.7 24 44c9.18-2.3 16-11.72 16-21.82V10L24 4Zm12 18.18c0 8-5.1 15.4-12 17.66-6.9-2.26-12-9.64-12-17.66v-9.56l12-4.24 12 4.24v9.56Zm-18.36-1L14.8 24l7.08 7.08L33.2 19.76l-2.82-2.82-8.48 8.48-4.26-4.24Z' fill='#00A3D7'/></svg>
